public/svgs/engagement/meeting.svg

<svg width="1em" height="1em" viewBox="0 0 24 24" fill="current" xmlns="http://www.w3.org/2000/svg">
    <path fill-rule="evenodd" clip-rule="evenodd"
        d="M15.1557 8.11623C15.1557 9.81325 13.7495 11.1709 12.0773 11.1709C10.3671 11.1709 8.99896 9.81325 8.99896 8.11623C8.99896 6.41921 10.3671 5.06159 12.0773 5.06159C13.7875 5.06159 15.1557 6.41921 15.1557 8.11623ZM12.0773 13.9238L14.0155 11.6988C16.0298 12.6039 17.4739 14.8289 17.4359 17.4687C17.4359 17.8081 17.3979 18.1852 17.3599 18.5246C16.2198 19.9577 14.2816 20.9005 12.0773 20.9005C9.87306 20.9005 7.93484 19.9577 6.79471 18.5246C6.7567 18.1852 6.7187 17.8458 6.7187 17.4687C6.7187 14.8289 8.16286 12.6039 10.1771 11.6988L12.0773 13.9238ZM16.1818 8.30479V8.11623C16.1818 6.94717 15.6877 5.92896 14.9277 5.17473C15.2697 4.00566 16.3718 3.10059 17.664 3.10059C19.2221 3.10059 20.4763 4.38278 20.4763 5.92896C20.4763 7.47513 19.2221 8.71962 17.664 8.71962C17.0939 8.71962 16.5998 8.56877 16.1818 8.30479ZM7.93484 8.19166C7.47879 8.53106 6.90872 8.71962 6.30065 8.71962C4.74247 8.71962 3.45032 7.43742 3.45032 5.92896C3.45032 4.34507 4.74247 3.10059 6.30065 3.10059C7.66881 3.10059 8.80894 4.04338 9.07497 5.32557C8.35289 6.04209 7.93484 7.02259 7.93484 8.11623V8.19166ZM17.6639 11.2851L19.4501 9.21094C21.3123 10.0406 22.6425 12.1147 22.6425 14.6037C22.6425 14.912 22.6111 15.1892 22.5769 15.4918C22.5734 15.5223 22.5699 15.5531 22.5664 15.5842C21.6923 16.6778 20.2102 17.5075 18.538 17.6961V17.5075C18.538 14.7168 17.1318 12.2279 14.9656 11.0211C15.4216 10.5686 15.8017 10.0029 15.9917 9.36178L17.6639 11.2851ZM8.08677 9.21094C8.27679 9.88975 8.69484 10.5308 9.18889 11.0211C7.02264 12.2656 5.65448 14.7168 5.65448 17.4698V17.6961C3.90628 17.5452 2.3861 16.7156 1.43599 15.5465C1.39799 15.2448 1.35999 14.9054 1.35999 14.566C1.35999 12.1524 2.69014 10.0406 4.51435 9.21094L6.30056 11.2851L8.08677 9.21094Z"
        fill="current" />
</svg>

<svg xmlns="http://www.w3.org/2000/svg" width="1em" height="1em" fill="current" viewBox="0 0 24 24"><path fill-rule="evenodd" d="M15.156 8.116c0 1.697-1.407 3.055-3.079 3.055a3.054 3.054 0 1 1 0-6.11 3.054 3.054 0 0 1 3.079 3.055m-3.079 5.808 1.938-2.225c2.015.905 3.459 3.13 3.42 5.77 0 .34-.037.716-.075 1.056-1.14 1.433-3.078 2.376-5.283 2.376-2.204 0-4.142-.943-5.282-2.376a9 9 0 0 1-.076-1.056c0-2.64 1.444-4.865 3.458-5.77zm4.105-5.62v-.188c0-1.169-.494-2.187-1.254-2.941.342-1.17 1.444-2.074 2.736-2.074 1.558 0 2.812 1.282 2.812 2.828a2.795 2.795 0 0 1-2.812 2.79c-.57 0-1.064-.15-1.482-.414m-8.247-.112A2.73 2.73 0 0 1 6.3 8.72c-1.559 0-2.85-1.283-2.85-2.791 0-1.584 1.291-2.828 2.85-2.828 1.368 0 2.508.942 2.774 2.225-.722.716-1.14 1.697-1.14 2.79zm9.729 3.093 1.786-2.074c1.862.83 3.192 2.904 3.192 5.393 0 .308-.03.585-.065.888l-.01.092c-.875 1.094-2.357 1.924-4.029 2.112v-.189c0-2.79-1.406-5.28-3.572-6.486.456-.452.836-1.018 1.026-1.66zM8.087 9.211c.19.679.608 1.32 1.102 1.81-2.166 1.245-3.535 3.696-3.535 6.449v.226c-1.748-.15-3.268-.98-4.218-2.15a8 8 0 0 1-.076-.98c0-2.414 1.33-4.525 3.154-5.355l1.787 2.074z" clip-rule="evenodd"/></svg>
